;FLAVOR:Marlin
;TIME:3924
;Filament used: 2.54745m
;Layer height: 0.2
;MINX:94.717
;MINY:90.462
;MINZ:0.2
;MAXX:147.893
;MAXY:144.538
;MAXZ:18
;Generated with Cura_SteamEngine 4.6.1
M140 S50
M105
M190 S50
M104 S200
M105
M109 S200
M82 ;absolute extrusion mode
; Ender 3 Custom Start G-code
G92 E0 ; Reset Extruder
G28 ; Home all axes
G1 Z2.0 F3000 ; Move Z Axis up little to prevent scratching of Heat Bed
G1 X0.1 Y20 Z0.3 F5000.0 ; Move to start position
G1 X0.1 Y200.0 Z0.3 F1500.0 E15 ; Draw the first line
G1 X0.4 Y200.0 Z0.3 F5000.0 ; Move to side a little
G1 X0.4 Y20 Z0.3 F1500.0 E30 ; Draw the second line
G92 E0 ; Reset Extruder
G1 Z2.0 F3000 ; Move Z Axis up little to prevent scratching of Heat Bed
G1 X5 Y20 Z0.3 F5000.0 ; Move over to prevent blob squish
G92 E0
G92 E0
G1 F2700 E-5
;LAYER_COUNT:90
;LAYER:0
M107
G0 F6000 X136.588 Y91.272 Z0.2
;TYPE:SKIRT
G1 F2700 E0
G1 F1200 X137.49 Y91.325 E0.03005
G1 X138.365 Y91.454 E0.05947
G1 X138.542 Y91.488 E0.06546
G1 X139.421 Y91.698 E0.09552
G1 X140.277 Y91.984 E0.12554
G1 X141.105 Y92.345 E0.15558
G1 X141.898 Y92.778 E0.18563
G1 X142.649 Y93.279 E0.21566
G1 X143.353 Y93.845 E0.24571
G1 X143.815 Y94.277 E0.26674
G1 X144.044 Y94.505 E0.27749
G1 X144.655 Y95.17 E0.30753
G1 X145.205 Y95.886 E0.33756
G1 X145.689 Y96.648 E0.36758
G1 X146.104 Y97.45 E0.39761
G1 X146.447 Y98.286 E0.42767
G1 X146.813 Y99.561 E0.47179
G1 X146.847 Y99.717 E0.4771
G1 X147 Y100.607 E0.50714
G1 X147.08 Y101.728 E0.54451
G1 X147.093 Y102.65 E0.57518
G1 X147.093 Y132.528 E1.56893
G1 X147.083 Y133.212 E1.59168
G1 X147.03 Y134.114 E1.62173
G1 X146.904 Y134.972 E1.65058
G1 X146.864 Y135.182 E1.65769
G1 X146.656 Y136.06 E1.6877
G1 X146.371 Y136.917 E1.71774
G1 X146.011 Y137.746 E1.7478
G1 X145.58 Y138.539 E1.77782
G1 X145.079 Y139.291 E1.80787
G1 X144.667 Y139.821 E1.8302
G1 X144.071 Y140.499 E1.86022
G1 X143.417 Y141.122 E1.89026
G1 X142.71 Y141.685 E1.92032
G1 X141.957 Y142.182 E1.95033
G1 X141.427 Y142.479 E1.97054
G1 X141.281 Y142.555 E1.97601
G1 X140.462 Y142.936 E2.00606
G1 X139.613 Y143.243 E2.03609
G1 X138.74 Y143.474 E2.06612
G1 X137.746 Y143.639 E2.09963
G1 X137.539 Y143.663 E2.10656
G1 X136.497 Y143.73 E2.14129
G1 X135.828 Y143.738 E2.16355
G1 X106.717 Y143.738 E3.13178
G1 X106.018 Y143.728 E3.15503
G1 X105.117 Y143.675 E3.18505
G1 X104.223 Y143.543 E3.21511
G1 X103.527 Y143.382 E3.23887
G1 X103.314 Y143.325 E3.2462
G1 X102.453 Y143.053 E3.27623
G1 X101.619 Y142.706 E3.30628
G1 X100.819 Y142.287 E3.33632
G1 X100.06 Y141.799 E3.36633
G1 X99.308 Y141.212 E3.39806
G1 X99.181 Y141.103 E3.40362
G1 X98.522 Y140.485 E3.43367
G1 X97.921 Y139.811 E3.46371
G1 X97.382 Y139.087 E3.49373
G1 X96.908 Y138.318 E3.52377
G1 X96.474 Y137.439 E3.55638
G1 X96.389 Y137.244 E3.56345
G1 X96.065 Y136.401 E3.59349
G1 X95.817 Y135.532 E3.62355
G1 X95.647 Y134.645 E3.65359
G1 X95.544 Y133.483 E3.69239
G1 X95.517 Y132.457 E3.72652
G1 X95.517 Y102.424 E4.72543
G1 X95.527 Y101.759 E4.74755
G1 X95.581 Y100.857 E4.7776
G1 X95.714 Y99.964 E4.80763
G1 X95.842 Y99.394 E4.82706
G1 X95.896 Y99.182 E4.83434
G1 X96.157 Y98.318 E4.86436
G1 X96.494 Y97.48 E4.8944
G1 X96.904 Y96.675 E4.92444
G1 X97.383 Y95.91 E4.95446
G1 X98.036 Y95.062 E4.99006
G1 X98.15 Y94.929 E4.99589
G1 X98.767 Y94.27 E5.02591
G1 X99.44 Y93.668 E5.05595
G1 X100.164 Y93.128 E5.08599
G1 X100.933 Y92.655 E5.11602
G1 X101.616 Y92.307 E5.14151
G1 X101.787 Y92.228 E5.14778
G1 X102.623 Y91.886 E5.17782
G1 X103.486 Y91.619 E5.20786
G1 X104.369 Y91.43 E5.2379
G1 X105.687 Y91.295 E5.28196
G1 X106.388 Y91.269 E5.3053
G1 X106.766 Y91.262 E5.31787
G1 X135.894 Y91.262 E6.28667
G1 X136.588 Y91.272 E6.30976
G0 F6000 X136.594 Y90.872
G1 F1200 X137.513 Y90.925 E6.34037
G1 X138.441 Y91.061 E6.37157
G1 X138.618 Y91.095 E6.37756
G1 X139.513 Y91.308 E6.40816
G1 X140.387 Y91.598 E6.43879
G1 X141.233 Y91.962 E6.46942
G1 X142.043 Y92.399 E6.50003
G1 X142.813 Y92.904 E6.53066
G1 X143.536 Y93.474 E6.56128
G1 X144.097 Y93.993 E6.5867
G1 X144.326 Y94.221 E6.59745
G1 X144.95 Y94.899 E6.6281
G1 X145.512 Y95.627 E6.65868
G1 X146.009 Y96.402 E6.68931
G1 X146.437 Y97.217 E6.71992
G1 X146.793 Y98.067 E6.75057
G1 X147.073 Y98.943 E6.78116
G1 X147.238 Y99.632 E6.80473
G1 X147.395 Y100.539 E6.83534
G1 X147.48 Y101.722 E6.87479
G1 X147.493 Y102.65 E6.90566
G1 X147.493 Y132.534 E7.8996
G1 X147.483 Y133.218 E7.92236
G1 X147.429 Y134.137 E7.95298
G1 X147.297 Y135.046 E7.98353
G1 X147.257 Y135.256 E7.99064
G1 X147.045 Y136.152 E8.02126
G1 X146.757 Y137.027 E8.0519
G1 X146.394 Y137.873 E8.08252
G1 X145.959 Y138.684 E8.11313
G1 X145.455 Y139.455 E8.14376
G1 X145.106 Y139.914 E8.16294
G1 X144.979 Y140.072 E8.16968
G1 X144.371 Y140.764 E8.20032
G1 X143.706 Y141.4 E8.23093
G1 X142.988 Y141.977 E8.26156
G1 X142.223 Y142.489 E8.29218
G1 X141.611 Y142.833 E8.31553
G1 X141.465 Y142.909 E8.32101
G1 X140.631 Y143.299 E8.35163
G1 X139.766 Y143.614 E8.38225
G1 X138.877 Y143.853 E8.41286
G1 X137.792 Y144.036 E8.44946
G1 X137.585 Y144.06 E8.45639
G1 X136.502 Y144.13 E8.49249
G1 X135.828 Y144.138 E8.51491
G1 X106.711 Y144.138 E9.48334
G1 X106.012 Y144.128 E9.50659
G1 X105.093 Y144.075 E9.53721
G1 X104.182 Y143.942 E9.56783
G1 X103.424 Y143.769 E9.59369
G1 X103.211 Y143.712 E9.60102
G1 X102.333 Y143.435 E9.63165
G1 X101.482 Y143.084 E9.66226
G1 X100.665 Y142.66 E9.69288
G1 X99.887 Y142.166 E9.72353
G1 X99.047 Y141.516 E9.75886
G1 X98.92 Y141.407 E9.76442
G1 X98.248 Y140.777 E9.79506
G1 X97.634 Y140.092 E9.82566
G1 X97.081 Y139.356 E9.85628
G1 X96.594 Y138.575 E9.88689
G1 X96.107 Y137.599 E9.92317
G1 X96.022 Y137.404 E9.93024
G1 X95.691 Y136.544 E9.96089
G1 X95.436 Y135.66 E9.99149
G1 X95.259 Y134.756 E10.02213
G1 X95.144 Y133.496 E10.06421
G1 X95.122 Y132.785 E10.08787
G1 X95.117 Y132.457 E10.09878
G1 X95.117 Y102.418 E11.09788
G1 X95.127 Y101.753 E11.12
G1 X95.181 Y100.834 E11.15062
G1 X95.314 Y99.923 E11.18124
G1 X95.454 Y99.296 E11.20261
G1 X95.508 Y99.084 E11.20989
G1 X95.774 Y98.202 E11.24053
G1 X96.115 Y97.347 E11.27114
G1 X96.529 Y96.525 E11.30175
G1 X97.013 Y95.742 E11.33237
G1 X97.732 Y94.802 E11.37173
G1 X97.846 Y94.669 E11.37756
G1 X98.475 Y93.996 E11.4082
G1 X99.16 Y93.381 E11.43882
G1 X99.895 Y92.828 E11.46941
G1 X100.676 Y92.34 E11.50004
G1 X101.448 Y91.944 E11.5289
G1 X101.619 Y91.865 E11.53516
G1 X102.471 Y91.516 E11.56578
G1 X103.35 Y91.242 E11.59641
G1 X104.249 Y91.045 E11.62702
G1 X105.162 Y90.926 E11.65764
G1 X105.672 Y90.895 E11.67464
G1 X106.373 Y90.869 E11.69797
G1 X106.766 Y90.862 E11.71104
G1 X135.9 Y90.862 E12.68004
G1 X136.594 Y90.872 E12.70313
G0 F6000 X136.599 Y90.472
G1 F1200 X137.536 Y90.526 E12.73434
G1 X138.516 Y90.668 E12.76728
G1 X138.693 Y90.702 E12.77327
G1 X139.606 Y90.919 E12.80448
G1 X140.497 Y91.212 E12.83568
G1 X141.359 Y91.579 E12.86684
G1 X142.188 Y92.019 E12.89806
G1 X142.975 Y92.528 E12.92923
G1 X143.717 Y93.102 E12.96043
G1 X144.379 Y93.71 E12.99033
G1 X144.608 Y93.938 E13.00108
G1 X145.244 Y94.627 E13.03226
G1 X145.819 Y95.368 E13.06346
G1 X146.328 Y96.156 E13.09466
G1 X146.769 Y96.984 E13.12586
G1 X147.137 Y97.846 E13.15703
G1 X147.431 Y98.737 E13.18824
G1 X147.629 Y99.547 E13.21597
G1 X147.789 Y100.471 E13.24716
G1 X147.88 Y101.716 E13.28868
G1 X147.893 Y102.65 E13.31975
G1 X147.893 Y132.54 E14.3139
G1 X147.883 Y133.224 E14.33665
G1 X147.829 Y134.16 E14.36783
G1 X147.69 Y135.121 E14.40013
G1 X147.65 Y135.331 E14.40724
G1 X147.435 Y136.244 E14.43844
G1 X147.144 Y137.136 E14.46964
G1 X146.777 Y137.999 E14.50083
G1 X146.338 Y138.828 E14.53203
G1 X145.831 Y139.616 E14.5632
G1 X145.418 Y140.164 E14.58602
G1 X145.291 Y140.322 E14.59276
G1 X144.672 Y141.028 E14.62399
G1 X143.996 Y141.678 E14.65518
G1 X143.267 Y142.268 E14.68638
G1 X142.491 Y142.794 E14.71756
G1 X141.796 Y143.188 E14.74413
G1 X141.65 Y143.264 E14.7496
G1 X140.8 Y143.661 E14.78081
G1 X139.92 Y143.985 E14.812
G1 X139.015 Y144.232 E14.8432
G1 X137.838 Y144.434 E14.88292
G1 X137.631 Y144.458 E14.88985
G1 X136.508 Y144.53 E14.92728
G1 X135.828 Y144.538 E14.94989
G1 X106.706 Y144.538 E15.9185
G1 X106.007 Y144.528 E15.94175
G1 X105.07 Y144.474 E15.97296
G1 X104.142 Y144.342 E16.00414
G1 X103.32 Y144.155 E16.03218
G1 X103.107 Y144.098 E16.03951
G1 X102.213 Y143.817 E16.07068
G1 X101.345 Y143.461 E16.10188
G1 X100.511 Y143.033 E16.13306
G1 X99.716 Y142.534 E16.16428
G1 X98.787 Y141.819 E16.20327
G1 X98.66 Y141.71 E16.20884
G1 X97.975 Y141.07 E16.24002
G1 X97.347 Y140.373 E16.27122
G1 X96.781 Y139.625 E16.30242
G1 X96.28 Y138.832 E16.33362
G1 X95.74 Y137.758 E16.3736
G1 X95.655 Y137.563 E16.38068
G1 X95.318 Y136.689 E16.41183
G1 X95.056 Y135.788 E16.44304
G1 X94.871 Y134.868 E16.47425
G1 X94.744 Y133.508 E16.51968
G1 X94.722 Y132.797 E16.54334
G1 X94.717 Y132.457 E16.55465
G1 X94.717 Y102.412 E17.55395
G1 X94.727 Y101.747 E17.57607
G1 X94.781 Y100.81 E17.60729
G1 X94.915 Y99.882 E17.63848
G1 X95.066 Y99.197 E17.66181
G1 X95.12 Y98.985 E17.66908
G1 X95.39 Y98.087 E17.70027
G1 X95.736 Y97.215 E17.73147
G1 X96.155 Y96.375 E17.76269
G1 X96.643 Y95.575 E17.79386
G1 X97.428 Y94.541 E17.83704
G1 X97.542 Y94.408 E17.84287
G1 X98.182 Y93.723 E17.87405
G1 X98.879 Y93.094 E17.90527
G1 X99.626 Y92.528 E17.93645
G1 X100.419 Y92.027 E17.96764
G1 X101.281 Y91.581 E17.99992
G1 X101.452 Y91.502 E18.00619
G1 X102.319 Y91.145 E18.03738
G1 X103.214 Y90.864 E18.06858
G1 X104.129 Y90.66 E18.09976
G1 X105.058 Y90.534 E18.13094
G1 X105.657 Y90.496 E18.1509
G1 X106.358 Y90.47 E18.17423
G1 X106.766 Y90.462 E18.1878
G1 X135.905 Y90.462 E19.15697
G1 X136.599 Y90.472 E19.18006
G1 F2700 E14.18006
;MESH:oled_display_panel_facia.stl
G0 F6000 X132.575 Y100.797
G0 X132.576 Y102.577
G0 X107.199 Y102.945
G0 X107.03 Y132.226
;TYPE:WALL-INNER
G1 F2700 E19.18006
G1 F1200 X123.405 Y132.234 E19.72469
G1 X125.978 Y132.241 E19.81027
G1 X127.057 Y132.25 E19.84616
G1 X135.581 Y132.225 E20.12967
G1 X135.591 Y114.141 E20.73115
G1 X135.598 Y112.148 E20.79743
G1 X135.607 Y111.321 E20.82494
G1 X135.579 Y102.774 E21.10922
G1 X132.577 Y102.768 E21.20906
G1 X127.056 Y102.749 E21.39269
G1 X125.977 Y102.759 E21.42858
G1 X116.406 Y102.772 E21.74692
G1 X107.027 Y102.774 E22.05886
G1 X107.02 Y119.671 E22.62086
G1 X107.013 Y122.33 E22.7093
G1 X107.005 Y123.445 E22.74639
G1 X107.03 Y132.226 E23.03844
G0 F6000 X107.429 Y131.826
;TYPE:WALL-OUTER
G1 F1200 X123.405 Y131.834 E23.56981
G1 X125.981 Y131.841 E23.65549
G1 X127.058 Y131.85 E23.69131
G1 X135.181 Y131.826 E23.96148
G1 X135.191 Y114.14 E24.54972
G1 X135.198 Y112.144 E24.61611
G1 X135.207 Y111.319 E24.64355
G1 X135.18 Y103.173 E24.91449
G1 X132.576 Y103.168 E25.0011
G1 X127.057 Y103.149 E25.18466
G1 X125.981 Y103.159 E25.22045
G1 X116.407 Y103.172 E25.53888
G1 X107.427 Y103.173 E25.83756
G1 X107.42 Y119.671 E26.38629
G1 X107.413 Y122.333 E26.47482
G1 X107.405 Y123.446 E26.51184
G1 X107.429 Y131.826 E26.79057
G1 F2700 E21.79057
G0 F6000 X107.129 Y131.826
G0 X106.835 Y132.422
G0 X106.835 Y132.729
G0 X106.317 Y132.939
;TYPE:WALL-INNER
G1 F2700 E26.79057
G1 F1200 X106.317 Y132.74 E26.79718
G1 X106.316 Y102.062 E27.81754
G1 X136.094 Y102.061 E28.80796
G1 X136.293 Y102.061 E28.81458
G1 X136.293 Y102.26 E28.81886
G1 X136.294 Y132.938 E29.83921
G1 X106.516 Y132.939 E30.82963
G1 X106.317 Y132.939 E30.83392
G0 F6000 X106.065 Y133.317
;TYPE:WALL-OUTER
G1 F1200 X105.989 Y133.266 E30.83696
G1 X105.938 Y133.191 E30.83998
G1 X105.917 Y133.081 E30.8437
G1 X105.916 Y101.92 E31.88012
G1 X105.938 Y101.81 E31.88385
G1 X105.989 Y101.734 E31.8869
G1 X106.064 Y101.683 E31.88991
G1 X106.174 Y101.662 E31.89364
G1 X136.435 Y101.661 E32.90012
G1 X136.544 Y101.683 E32.90382
G1 X136.62 Y101.734 E32.90687
G1 X136.671 Y101.81 E32.90991
G1 X136.693 Y101.92 E32.91364
G1 X136.694 Y133.078 E33.94996
G1 X136.671 Y133.19 E33.95376
G1 X136.62 Y133.266 E33.95681
G1 X136.544 Y133.317 E33.95985
G1 X136.436 Y133.338 E33.96351
G1 X106.175 Y133.339 E34.97
G1 X106.065 Y133.317 E34.97373
G0 F6000 X106.357 Y132.912
G0 X106.756 Y132.777
;TYPE:SKIN
G1 F1200 X106.476 Y132.497 E34.9869
G0 F6000 X106.871 Y132.327
G1 F1200 X106.476 Y131.931 E35.0055
G0 F6000 X106.869 Y131.76
G1 F1200 X106.476 Y131.366 E35.02401
G0 F6000 X106.868 Y131.193
G1 F1200 X106.476 Y130.8 E35.04247
G0 F6000 X106.866 Y130.625
G1 F1200 X106.476 Y130.234 E35.06084
G0 F6000 X106.865 Y130.058
G1 F1200 X106.476 Y129.669 E35.07914
G0 F6000 X106.863 Y129.491
G1 F1200 X106.476 Y129.103 E35.09736
G0 F6000 X106.861 Y128.923
G1 F1200 X106.476 Y128.537 E35.1155
G0 F6000 X106.86 Y128.356
G1 F1200 X106.476 Y127.972 E35.13356
G0 F6000 X106.857 Y127.788
G1 F1200 X106.476 Y127.406 E35.1515
G0 F6000 X106.856 Y127.221
G1 F1200 X106.476 Y126.84 E35.1694
G0 F6000 X106.855 Y126.654
G1 F1200 X106.476 Y126.275 E35.18723
G0 F6000 X106.853 Y126.086
G1 F1200 X106.476 Y125.709 E35.20496
G0 F6000 X106.851 Y125.519
G1 F1200 X106.476 Y125.143 E35.22262
G0 F6000 X106.85 Y124.952
G1 F1200 X106.476 Y124.578 E35.24021
G0 F6000 X106.848 Y124.384
G1 F1200 X106.476 Y124.012 E35.25771
G0 F6000 X106.846 Y123.817
G1 F1200 X106.476 Y123.446 E35.27514
G0 F6000 X106.846 Y123.251
G1 F1200 X106.476 Y122.881 E35.29254
G0 F6000 X106.85 Y122.69
G1 F1200 X106.476 Y122.315 E35.31016
G0 F6000 X106.853 Y122.127
G1 F1200 X106.476 Y121.749 E35.32791
G0 F6000 X106.855 Y121.562
G1 F1200 X106.476 Y121.183 E35.34574
G0 F6000 X106.857 Y120.999
G1 F1200 X106.476 Y120.618 E35.36366
G0 F6000 X106.858 Y120.435
G1 F1200 X106.476 Y120.052 E35.38165
G0 F6000 X106.86 Y119.87
G1 F1200 X106.476 Y119.486 E35.39972
G0 F6000 X106.86 Y119.305
G1 F1200 X106.476 Y118.921 E35.41778
G0 F6000 X106.86 Y118.74
G1 F1200 X106.476 Y118.355 E35.43586
G0 F6000 X106.86 Y118.174
G1 F1200 X106.476 Y117.789 E35.45395
G0 F6000 X106.861 Y117.609
G1 F1200 X106.475 Y117.223 E35.47211
G0 F6000 X106.861 Y117.043
G1 F1200 X106.475 Y116.657 E35.49026
G0 F6000 X106.861 Y116.478
G1 F1200 X106.475 Y116.092 E35.50842
G0 F6000 X106.861 Y115.912
G1 F1200 X106.475 Y115.526 E35.52658
G0 F6000 X106.862 Y115.347
G1 F1200 X106.475 Y114.96 E35.54478
G0 F6000 X106.862 Y114.781
G1 F1200 X106.475 Y114.395 E35.56296
G0 F6000 X106.862 Y114.216
G1 F1200 X106.475 Y113.829 E35.58116
G0 F6000 X106.862 Y113.651
G1 F1200 X106.475 Y113.263 E35.59939
G0 F6000 X106.862 Y113.085
G1 F1200 X106.475 Y112.697 E35.61762
G0 F6000 X106.862 Y112.519
G1 F1200 X106.475 Y112.132 E35.63582
G0 F6000 X106.863 Y111.954
G1 F1200 X106.475 Y111.566 E35.65407
G0 F6000 X106.863 Y111.389
G1 F1200 X106.475 Y111 E35.67234
G0 F6000 X106.863 Y110.823
G1 F1200 X106.475 Y110.435 E35.69059
G0 F6000 X106.863 Y110.257
G1 F1200 X106.475 Y109.869 E35.70884
G0 F6000 X106.864 Y109.692
G1 F1200 X106.475 Y109.303 E35.72714
G0 F6000 X106.864 Y109.127
G1 F1200 X106.475 Y108.738 E35.74544
G0 F6000 X106.864 Y108.561
G1 F1200 X106.475 Y108.172 E35.76374
G0 F6000 X106.865 Y107.996
G1 F1200 X106.475 Y107.606 E35.78208
G0 F6000 X106.865 Y107.43
G1 F1200 X106.475 Y107.041 E35.8004
G0 F6000 X106.865 Y106.865
G1 F1200 X106.475 Y106.475 E35.81875
G0 F6000 X106.865 Y106.3
G1 F1200 X106.475 Y105.909 E35.83711
G0 F6000 X106.865 Y105.734
G1 F1200 X106.475 Y105.344 E35.85546
G0 F6000 X106.865 Y105.168
G1 F1200 X106.475 Y104.778 E35.8738
G0 F6000 X106.865 Y104.603
G1 F1200 X106.475 Y104.212 E35.89217
G0 F6000 X106.866 Y104.038
G1 F1200 X106.475 Y103.647 E35.91056
G0 F6000 X106.866 Y103.472
G1 F1200 X106.475 Y103.081 E35.92895
G0 F6000 X106.866 Y102.906
G1 F1200 X106.475 Y102.515 E35.94734
G0 F6000 X106.746 Y102.221
G1 F1200 X107.138 Y102.613 E35.96578
G0 F6000 X107.312 Y102.221
G1 F1200 X107.704 Y102.613 E35.98422
G0 F6000 X107.878 Y102.221
G1 F1200 X108.27 Y102.613 E36.00266
G0 F6000 X108.444 Y102.221
G1 F1200 X108.835 Y102.613 E36.02107
G0 F6000 X109.009 Y102.221
G1 F1200 X109.401 Y102.613 E36.03951
G0 F6000 X109.575 Y102.221
G1 F1200 X109.967 Y102.613 E36.05795
G0 F6000 X110.141 Y102.221
G1 F1200 X110.532 Y102.613 E36.07637
G0 F6000 X110.706 Y102.221
G1 F1200 X111.098 Y102.613 E36.09481
G0 F6000 X111.272 Y102.221
G1 F1200 X111.663 Y102.612 E36.1132
G0 F6000 X111.838 Y102.221
G1 F1200 X112.229 Y102.612 E36.13159
G0 F6000 X112.403 Y102.221
G1 F1200 X112.794 Y102.612 E36.14998
G0 F6000 X112.969 Y102.221
G1 F1200 X113.36 Y102.612 E36.16837
